X: 108
M: 4/4
L: 1/4
K: G
[| G> F E G | A> G F D | E2 F> F | G3 z | G> F E G |
c B A G | B> A G F | G> F E G | A> G F D | E2 F> F | G3 z |]


